X:1260
T:Frankie Gavin's
M:4/4
L:1/8
K:G
G3 A B2 ge|dBGB AGEF|GBAF GABd|egfa gedB|
G2 AF G2 Bd|BG G2 AE E2|GBAF GABd|1 (3efg fa g4 :|2 egfa gede ||
g3 a bgaf|gaba gedc|BABA GABd|g2 fa gfed|
gfga bg g2|agef g2 dc|B3 A GABd|1 egfa gede:|2 (3efg fa g4 ||
